images/facebook.svg

<svg width="25" height="24" fill="none" xmlns="http://www.w3.org/2000/svg"><path fill-rule="evenodd" clip-rule="evenodd" d="M.5 12.067c0 5.966 4.333 10.927 10 11.933v-8.667h-3V12h3V9.333c0-3 1.933-4.666 4.667-4.666.866 0 1.8.133 2.666.266V8H16.3c-1.467 0-1.8.733-1.8 1.667V12h3.2l-.533 3.333H14.5V24c5.667-1.006 10-5.966 10-11.933C24.5 5.43 19.1 0 12.5 0S.5 5.43.5 12.067z" fill="#4B7EE8"/></svg>

<svg width="25" height="24" viewBox="0 0 25 24" fill="none" xmlns="http://www.w3.org/2000/svg">
<path fill-rule="evenodd" clip-rule="evenodd" d="M0.5 12.067C0.5 18.033 4.833 22.994 10.5 24V15.333H7.5V12H10.5V9.333C10.5 6.333 12.433 4.667 15.167 4.667C16.033 4.667 16.967 4.8 17.833 4.933V8H16.3C14.833 8 14.5 8.733 14.5 9.667V12H17.7L17.167 15.333H14.5V24C20.167 22.994 24.5 18.034 24.5 12.067C24.5 5.43 19.1 0 12.5 0C5.9 0 0.5 5.43 0.5 12.067Z" fill="#4B7EE8"/>
</svg>
